X: 162
T: Bonnie Dundee
M:6/8
R:jig
L:1/8
Z:added by Alf 
K:A
cd|efe efe|agf e2d|ceA cec|BcB B2d|
efe efg|agf e2d|cec BcB|A2A A2|
E|AAA Adc|BEE E2E|BBB Bcd|dcB c2A|
cBc d2d|ede f3-|f3-fed|cdc BcB|AAA A4|
